resources/svg/folders-line.svg

<svg fill="currentColor" viewBox="0 0 24 24" xmlns="http://www.w3.org/2000/svg"><path d="M6 7V4C6 3.44772 6.44772 3 7 3H13.4142L15.4142 5H21C21.5523 5 22 5.44772 22 6V16C22 16.5523 21.5523 17 21 17H18V20C18 20.5523 17.5523 21 17 21H3C2.44772 21 2 20.5523 2 20V8C2 7.44772 2.44772 7 3 7H6ZM6 9H4V19H16V17H6V9ZM8 5V15H20V7H14.5858L12.5858 5H8Z"/></svg>

<svg xmlns="http://www.w3.org/2000/svg" viewBox="0 0 24 24" fill="currentColor">
    <g>
        <path fill="none" d="M0 0h24v24H0z"/>
        <path d="M6 7V4a1 1 0 0 1 1-1h6.414l2 2H21a1 1 0 0 1 1 1v10a1 1 0 0 1-1 1h-3v3a1 1 0 0 1-1 1H3a1 1 0 0 1-1-1V8a1 1 0 0 1 1-1h3zm0 2H4v10h12v-2H6V9zm2-4v10h12V7h-5.414l-2-2H8z"/>
    </g>
</svg>
